chains/blockx/logo.svg

<svg width="116" height="121" viewBox="0 0 116 121" fill="none" xmlns="http://www.w3.org/2000/svg">
<path d="M83.6839 10H103.76C105.542 10 106.434 12.1543 105.174 13.4142L59.6756 58.9129C58.8946 59.694 58.8946 60.9603 59.6756 61.7414L105.174 107.24C106.434 108.5 105.542 110.654 103.76 110.654H83.6839C82.623 110.654 81.6056 110.233 80.8555 109.483L34.5283 63.1556C32.9662 61.5935 32.9662 59.0608 34.5283 57.4987L80.8555 11.1716C81.6056 10.4214 82.623 10 83.6839 10Z" fill="#166DFF"/>
<path d="M44.6149 44.5838L34.9683 34.9372C34.2181 34.1871 33.2007 33.7656 32.1398 33.7656H12.0636C10.2818 33.7656 9.38944 35.9199 10.6494 37.1798L31.7245 58.2549C32.0152 57.4631 32.4785 56.7202 33.1142 56.0845L44.6149 44.5838Z" fill="black"/>
<path d="M31.7245 62.3994C32.0152 63.1913 32.4785 63.9341 33.1142 64.5698L44.6149 76.0705L34.9683 85.7172C34.2181 86.4673 33.2007 86.8887 32.1398 86.8887H12.0636C10.2818 86.8887 9.38944 84.7344 10.6494 83.4745L31.7245 62.3994Z" fill="black"/>
</svg>

<svg xmlns="http://www.w3.org/2000/svg" width="116" height="121" fill="none"><path fill="#166DFF" d="M83.684 10h20.076c1.782 0 2.674 2.154 1.414 3.414L59.676 58.913a2 2 0 0 0 0 2.828l45.498 45.499c1.26 1.26.368 3.414-1.414 3.414H83.684a4 4 0 0 1-2.828-1.171L34.528 63.156a4 4 0 0 1 0-5.657l46.328-46.327A4 4 0 0 1 83.684 10Z"/><path fill="#000" d="m44.615 44.584-9.647-9.647a4 4 0 0 0-2.828-1.171H12.064c-1.782 0-2.675 2.154-1.415 3.414l21.075 21.075a5.977 5.977 0 0 1 1.39-2.17l11.5-11.501ZM31.724 62.4a5.986 5.986 0 0 0 1.39 2.17l11.5 11.5-9.646 9.647a4 4 0 0 1-2.828 1.172H12.064c-1.782 0-2.675-2.155-1.415-3.414l21.075-21.076Z"/></svg>
